X: 6
T: The Ships Are Sailing
R: reel
M: 4/4
L: 1/8
K: Edor
|:FBBA FGAF | EA A2 EA A2 | B3c dcde | fBBc dcBA |
FBBA FGAF | EA (3cBA EA (3cBA| B3c dcde | fBBA B3z :||
|:d3e fdBd | c3d ecAc | d3e fdec | dcBA FB B2 |
dcde fdBd | cBcd ecAc | d2fd c2ec | BABc dcBA :||


Tune 543	Setting 13501

